public/assets/images/icons/black/export/question-circle-full.svg

<svg width="16" height="16" xmlns="http://www.w3.org/2000/svg" viewBox="0 0 16 16" shape-rendering="geometricPrecision"><defs><mask id="a"><rect fill="#fff" width="100%" height="100%"/><path d="M13.848-1.1L12.051.695l.286.287A4.455 4.455 0 0 0 9.23 5.236v.987h2.626v-.988c0-.491.191-.954.538-1.302l.03-.03 1.425 1.421 3.212-3.213L13.848-1.1z"/></mask></defs><path d="M13.848-.04l-.736.735.821.821h-.234l-.156.008A3.722 3.722 0 0 0 9.98 5.235v.237h1.126v-.237c0-.691.27-1.343.759-1.833a2.579 2.579 0 0 1 1.833-.759h.3l-.886.887.735.734L16 2.111 13.848-.04z" fill="#cb1800"/><path d="M7.999.97a7.03 7.03 0 0 0 0 14.06 7.03 7.03 0 1 0 0-14.06zm-.082 11.554h-.011c-.663 0-1.121-.496-1.121-1.16 0-.686.471-1.156 1.132-1.156.688 0 1.136.471 1.147 1.156.001.664-.458 1.16-1.147 1.16zm1.543-4.75c-.472.52-.663 1.02-.65 1.594v.229H7.116l-.012-.332c-.038-.65.177-1.312.75-1.988.409-.497.742-.905.742-1.339 0-.445-.293-.738-.93-.764-.423 0-.932.152-1.262.381L5.97 4.169c.472-.268 1.223-.523 2.127-.523 1.681 0 2.446.93 2.446 1.986 0 .969-.597 1.605-1.083 2.142z" mask="url(#a)"/></svg>

<?xml version="1.0"?><!DOCTYPE svg PUBLIC "-//W3C//DTD SVG 1.1//EN" "http://www.w3.org/Graphics/SVG/1.1/DTD/svg11.dtd"><svg width="16px" height="16px" xmlns="http://www.w3.org/2000/svg" viewBox="0 0 16 16" shape-rendering="geometricPrecision" fill="#000"><defs><mask id="export-path"><rect fill="#fff" width="100%" height="100%"/><path d="M13.848-1.1l-1.797,1.795l0.286,0.287c-1.812,0.575-3.107,2.263-3.107,4.254v0.987h2.626 V5.235c0-0.491,0.191-0.954,0.538-1.302c0.01-0.01,0.021-0.02,0.03-0.03l1.425,1.421l3.212-3.213L13.848-1.1z" fill="#000"/></mask></defs><path id="export" display="inline" d="M13.848-0.04l-0.736,0.735l0.821,0.821h-0.234 l-0.156,0.008c-1.978,0.084-3.563,1.714-3.563,3.711v0.237h1.126V5.235c0-0.691,0.27-1.343,0.759-1.833 c0.49-0.489,1.141-0.759,1.833-0.759h0.237V2.643h0.063L13.112,3.53l0.735,0.734L16,2.111L13.848-0.04z" fill="#cb1800"/><g mask="url(#export-path)"><path d="M7.999,0.97c-3.882,0-7.029,3.147-7.029,7.033c0.001,3.881,3.147,7.025,7.029,7.027 c3.883-0.002,7.031-3.146,7.031-7.027C15.03,4.116,11.882,0.97,7.999,0.97z M7.917,12.524H7.906c-0.663,0-1.121-0.496-1.121-1.16 c0-0.686,0.471-1.156,1.132-1.156c0.688,0,1.136,0.471,1.147,1.156C9.065,12.028,8.606,12.524,7.917,12.524z M9.46,7.774 c-0.472,0.52-0.663,1.02-0.65,1.594v0.229H7.116L7.104,9.265c-0.038-0.65,0.177-1.312,0.75-1.988 C8.263,6.78,8.596,6.372,8.596,5.938c0-0.445-0.293-0.738-0.93-0.764c-0.423,0-0.932,0.152-1.262,0.381L5.97,4.169 c0.472-0.268,1.223-0.523,2.127-0.523c1.681,0,2.446,0.93,2.446,1.986C10.543,6.601,9.946,7.237,9.46,7.774z"/></g></svg>
